public/svgs/thin/align-left.svg

<svg xmlns="http://www.w3.org/2000/svg" viewBox="0 0 448 512"><!-- Font Awesome Pro 6.0.0-alpha2 by @fontawesome - https://fontawesome.com License - https://fontawesome.com/license (Commercial License) --><path d="M280 56.001H8C3.582 56.001 0 59.582 0 64.001V64.001C0 68.419 3.582 72.001 8 72.001H280C284.418 72.001 288 68.419 288 64.001V64.001C288 59.582 284.418 56.001 280 56.001ZM0 192.001V192.001C0 196.419 3.582 200.001 8 200.001H440C444.418 200.001 448 196.419 448 192.001V192.001C448 187.582 444.418 184.001 440 184.001H8C3.582 184.001 0 187.582 0 192.001ZM0 320.001L0 320.001C0 324.419 3.582 328.001 8 328.001H280C284.418 328.001 288 324.419 288 320.001L288 320.001C288 315.582 284.418 312.001 280 312.001H8C3.582 312.001 0 315.582 0 320.001ZM8 456.001H440C444.418 456.001 448 452.419 448 448.001L448 448.001C448 443.582 444.418 440.001 440 440.001H8C3.582 440.001 0 443.582 0 448.001L0 448.001C0 452.419 3.582 456.001 8 456.001Z"/></svg>

<svg xmlns="http://www.w3.org/2000/svg" viewBox="0 0 448 512"><!--! Font Awesome Pro 6.5.1 by @fontawesome - https://fontawesome.com License - https://fontawesome.com/license (Commercial License) Copyright 2023 Fonticons, Inc. --><path d="M8 56c-4.4 0-8 3.6-8 8s3.6 8 8 8H280c4.4 0 8-3.6 8-8s-3.6-8-8-8H8zM8 184c-4.4 0-8 3.6-8 8s3.6 8 8 8H440c4.4 0 8-3.6 8-8s-3.6-8-8-8H8zM0 320c0 4.4 3.6 8 8 8H280c4.4 0 8-3.6 8-8s-3.6-8-8-8H8c-4.4 0-8 3.6-8 8zM8 440c-4.4 0-8 3.6-8 8s3.6 8 8 8H440c4.4 0 8-3.6 8-8s-3.6-8-8-8H8z"/></svg>
